examples/static/amis.svg

<svg width="284" height="89" xmlns="http://www.w3.org/2000/svg"><path d="M38.3 3.31C40.36 2.23 42.51.84 44.93.97c2.99.51 5.53 2.29 8.13 3.73-11.43 6.86-23.17 13.21-34.46 20.31 2.76 1.72 5.55 3.38 8.36 5.01 11.68-6.7 23.19-13.67 34.97-20.19 5.76 3.32 22.71 13.44 25.18 15.5-14.38 8.08-28.53 16.58-42.92 24.66-2.65-1.64-5.31-3.29-7.93-4.99 10.77-6.96 22.3-12.67 33.18-19.42 0-.29-.02-.88-.03-1.17-2.28-1.83-4.93-3.13-7.45-4.58C50.19 26.34 38.67 33.28 27 39.96c-5.71-3.16-11.23-6.67-17.17-9.4-.11 3.17-.18 6.34-.23 9.5 8.35 4.78 16.68 9.57 25.03 14.35 3.14 1.74 6.07 3.94 9.47 5.18 1.61-.33 3.07-1.14 4.5-1.92 12.99-7.65 26.15-15.02 39.19-22.59-.11 7.33-.13 14.65-.01 21.97-.07 2.6.13 5.34-.87 7.81-1.17 1.56-2.92 2.53-4.55 3.54-10.4 5.92-20.85 11.75-31.12 17.88-2 1.11-4.03 2.31-6.32 2.71-2.41.15-4.57-1.21-6.63-2.28C27.78 80.5 17.17 74.46 6.53 68.46c-1.78-1.14-3.84-2.15-4.94-4.04-.86-3.04-.54-6.24-.59-9.36 14.34 8.46 28.81 16.69 43.16 25.12 11.86-6.45 23.39-13.48 35.13-20.15-.04-3.33-.08-6.65-.13-9.98-11.62 6.66-23.2 13.39-34.92 19.88-14.37-8.35-28.85-16.52-43.23-24.86.01-5.05-.25-10.1-.02-15.14.19-2.07.16-4.57 1.99-5.95 3.01-2.49 6.6-4.1 9.95-6.06C21.4 13.08 29.9 8.27 38.3 3.31Zm83.54 66.53c12.6 0 17.472-6.552 17.472-15.624V40.104c0-10.92-6.048-16.884-17.472-16.884-10.08 0-15.456 5.376-15.456 9.492v3.696h.42c2.604-3.612 7.56-6.132 14.28-6.132 7.308 0 10.584 2.688 10.584 9.24v2.1h-6.048c-13.44 0-20.916 5.292-20.916 14.952 0 7.98 7.98 13.272 17.136 13.272Zm.336-7.056c-5.796 0-9.66-3.108-9.66-7.056 0-4.956 4.116-7.728 13.104-7.728h6.132v5.628c0 6.468-2.772 9.156-9.576 9.156ZM158.464 69V43.548c0-9.156 3.444-13.104 10.08-13.104 6.468 0 10.08 4.956 10.08 13.104v19.824c0 3.612 1.428 5.628 5.124 5.628h2.604V43.296c0-9.072 3.108-12.852 10.5-12.852 6.132 0 9.66 3.696 9.66 13.104v19.824c0 3.612 2.1 5.628 5.04 5.628h2.688V43.296c0-13.356-5.964-20.076-17.136-20.076-5.88 0-11.172 3.276-14.112 8.148-2.772-5.208-7.308-8.148-13.944-8.148-11.76 0-18.312 8.988-18.312 19.32v20.832c0 3.78 2.1 5.628 5.292 5.628h2.436Zm73.08-51.156c2.856 0 5.124-2.352 5.124-5.208 0-2.856-2.268-5.292-5.124-5.292s-5.208 2.436-5.208 5.292 2.352 5.208 5.208 5.208Zm9.408 51.576c2.688 0 4.452-1.68 4.452-4.536v-2.52h-3.276c-4.2 0-6.972-1.764-6.972-7.392V30.024c0-3.948-2.688-5.964-5.292-5.964h-2.352v32.004c0 8.988 4.62 13.356 13.44 13.356Zm24.612.42c10.248 0 17.556-5.04 17.556-14.448 0-6.216-4.368-10.332-13.272-12.264-9.324-2.016-11.004-3.276-11.004-6.3 0-3.78 3.024-6.384 10.668-6.384 5.292 0 10.164 2.268 12.096 4.62h.42v-3.36c0-5.46-6.468-8.484-13.104-8.484-11.172 0-17.808 6.804-17.808 14.112 0 6.72 3.948 9.576 12.348 11.34 10.248 2.184 11.844 3.78 11.844 7.476 0 4.452-2.94 6.552-9.576 6.552-5.796 0-10.836-2.268-13.356-5.04h-.42v3.276c0 5.376 6.048 8.904 13.608 8.904Z" fill="#2468f2"/></svg>

<?xml version="1.0" encoding="UTF-8"?>
<svg width="284px" height="89px" viewBox="0 0 284 89" version="1.1" xmlns="http://www.w3.org/2000/svg" xmlns:xlink="http://www.w3.org/1999/xlink">
    <title>编组</title>
    <desc>Created with Sketch.</desc>
    <g id="页面-1" stroke="none" stroke-width="1" fill="none" fill-rule="evenodd">
        <g id="编组" fill="#2468f2" fill-rule="nonzero">
            <g id="amis">
                <g id="am">
                    <path d="M38.3,3.31 C40.36,2.23 42.51,0.84 44.93,0.97 C47.92,1.48 50.46,3.26 53.06,4.7 C41.63,11.56 29.89,17.91 18.6,25.01 C21.36,26.73 24.15,28.39 26.96,30.02 C38.64,23.32 50.15,16.35 61.93,9.83 C67.69,13.15 84.64,23.27 87.11,25.33 C72.73,33.41 58.58,41.91 44.19,49.99 C41.54,48.35 38.88,46.7 36.26,45 C47.03,38.04 58.56,32.33 69.44,25.58 C69.44,25.29 69.42,24.7 69.41,24.41 C67.13,22.58 64.48,21.28 61.96,19.83 C50.19,26.34 38.67,33.28 27,39.96 C21.29,36.8 15.77,33.29 9.83,30.56 C9.72,33.73 9.65,36.9 9.6,40.06 C17.95,44.84 26.28,49.63 34.63,54.41 C37.77,56.15 40.7,58.35 44.1,59.59 C45.71,59.26 47.17,58.45 48.6,57.67 C61.59,50.02 74.75,42.65 87.79,35.08 C87.68,42.41 87.66,49.73 87.78,57.05 C87.71,59.65 87.91,62.39 86.91,64.86 C85.74,66.42 83.99,67.39 82.36,68.4 C71.96,74.32 61.51,80.15 51.24,86.28 C49.24,87.39 47.21,88.59 44.92,88.99 C42.51,89.14 40.35,87.78 38.29,86.71 C27.78,80.5 17.17,74.46 6.53,68.46 C4.75,67.32 2.69,66.31 1.59,64.42 C0.73,61.38 1.05,58.18 1,55.06 C15.34,63.52 29.81,71.75 44.16,80.18 C56.02,73.73 67.55,66.7 79.29,60.03 C79.25,56.7 79.21,53.38 79.16,50.05 C67.54,56.71 55.96,63.44 44.24,69.93 C29.87,61.58 15.39,53.41 1.01,45.07 C1.02,40.02 0.76,34.97 0.99,29.93 C1.18,27.86 1.15,25.36 2.98,23.98 C5.99,21.49 9.58,19.88 12.93,17.92 C21.4,13.08 29.9,8.27 38.3,3.31 Z" id="路径"></path>
                </g>
            </g>
            <path d="M121.84,69.84 C134.44,69.84 139.312,63.288 139.312,54.216 L139.312,40.104 C139.312,29.184 133.264,23.22 121.84,23.22 C111.76,23.22 106.384,28.596 106.384,32.712 L106.384,36.408 L106.804,36.408 C109.408,32.796 114.364,30.276 121.084,30.276 C128.392,30.276 131.668,32.964 131.668,39.516 L131.668,41.616 L125.62,41.616 C112.18,41.616 104.704,46.908 104.704,56.568 C104.704,64.548 112.684,69.84 121.84,69.84 Z M122.176,62.784 C116.38,62.784 112.516,59.676 112.516,55.728 C112.516,50.772 116.632,48 125.62,48 L131.752,48 L131.752,53.628 C131.752,60.096 128.98,62.784 122.176,62.784 Z M158.464,69 L158.464,43.548 C158.464,34.392 161.908,30.444 168.544,30.444 C175.012,30.444 178.624,35.4 178.624,43.548 L178.624,63.372 C178.624,66.984 180.052,69 183.748,69 L186.352,69 L186.352,43.296 C186.352,34.224 189.46,30.444 196.852,30.444 C202.984,30.444 206.512,34.14 206.512,43.548 L206.512,63.372 C206.512,66.984 208.612,69 211.552,69 L214.24,69 L214.24,43.296 C214.24,29.94 208.276,23.22 197.104,23.22 C191.224,23.22 185.932,26.496 182.992,31.368 C180.22,26.16 175.684,23.22 169.048,23.22 C157.288,23.22 150.736,32.208 150.736,42.54 L150.736,63.372 C150.736,67.152 152.836,69 156.028,69 L158.464,69 Z M231.544,17.844 C234.4,17.844 236.668,15.492 236.668,12.636 C236.668,9.78 234.4,7.344 231.544,7.344 C228.688,7.344 226.336,9.78 226.336,12.636 C226.336,15.492 228.688,17.844 231.544,17.844 Z M240.952,69.42 C243.64,69.42 245.404,67.74 245.404,64.884 L245.404,62.364 L242.128,62.364 C237.928,62.364 235.156,60.6 235.156,54.972 L235.156,30.024 C235.156,26.076 232.468,24.06 229.864,24.06 L227.512,24.06 L227.512,56.064 C227.512,65.052 232.132,69.42 240.952,69.42 Z M265.564,69.84 C275.812,69.84 283.12,64.8 283.12,55.392 C283.12,49.176 278.752,45.06 269.848,43.128 C260.524,41.112 258.844,39.852 258.844,36.828 C258.844,33.048 261.868,30.444 269.512,30.444 C274.804,30.444 279.676,32.712 281.608,35.064 L282.028,35.064 L282.028,31.704 C282.028,26.244 275.56,23.22 268.924,23.22 C257.752,23.22 251.116,30.024 251.116,37.332 C251.116,44.052 255.064,46.908 263.464,48.672 C273.712,50.856 275.308,52.452 275.308,56.148 C275.308,60.6 272.368,62.7 265.732,62.7 C259.936,62.7 254.896,60.432 252.376,57.66 L251.956,57.66 L251.956,60.936 C251.956,66.312 258.004,69.84 265.564,69.84 Z" id="amis"></path>
        </g>
    </g>
</svg>
